X:1
T:Title
%%score { 1 | ( 2 3 ) }
L:1/8
M:4/4
K:C
V:1 treble nm="Grand Piano"
V:2 bass 
V:3 bass 
V:1
 z4 z2[Q:1/4=100] [CE][DF] | [EG]2 [EG]2 [EG]2 [EG]2 | [Ge]3 [Fd] [Ec]2 [EB]2 | %3
 A2 A2 A[Ac][GB][FA] |[M:3/4] [EG]6 |[M:1/4] [CE][DF] |[M:4/4] [EG]2 [EG]2 [EG]2 [EG]2 | %7
 [Ge]3 [Fd] [Ec]2 [EB]2 | [^FA]2 [FA]2 [Fd][Fc][FB][FA] |[M:3/4] G6 |[M:1/4] z G | %11
[M:4/4] [Ec]2 z [G,G] [CEc]2 z E | c2 B2 [CA]3 [CA] | [^Fd]2 [Fd]2 [Fd][Fe][Fd][F^c] | %14
[M:3/4] d4 G2 |[M:1/4] EF |[M:4/4] [EG]2 [EG]2 [EG]2 [EG]2 | [Ge]3 [Fd] [Ec]2 [EB]2 | A2 A2 GcBd | %19
[M:3/4] [Ec]6 |] %20
V:2
 z4 z2 [C,G,]2 | [C,C]2 [C,C]2 [C,C]2 [C,C]2 | [C,C]3 [C,G,] [C,G,]2 [C,C]2 | %3
 [F,CF]2 [F,CF]2 [F,CF][F,C][F,C][F,C] |[M:3/4] [C,C]6 |[M:1/4] [C,G,]2 | %6
[M:4/4] [C,C]2 [C,C]2 [C,C]2 [C,C]2 | [C,C]3 [C,G,] [C,G,]2 [C,C]2 | %8
 [D,C]2 [D,C]2 [D,A,][D,D][D,D][D,C] |[M:3/4] [G,B,]6 |[M:1/4] z G, | %11
[M:4/4] [C,G,]2 z2 [A,,A,]2 z E, | [E,A,E]2 [E,^G,D]2 [A,,A,]3 [A,,A,] | %13
 [D,A,]2 [D,A,]2 [D,C][D,C][D,C][D,C] |[M:3/4] [G,B,F]6 |[M:1/4] CD | %16
[M:4/4] [C,C]2 [C,C]2 [C,C]2 [C,C]2 | [C,C]3 [C,G,] [C,G,]2 [C,C]2 | %18
 [F,CF]2 [F,CF]2 [G,CE][G,CE][G,DF][G,B,F] |[M:3/4][K:bass] [C,C]6 |] %20
V:3
 x8 | x8 | x8 | x8 |[M:3/4] x6 |[M:1/4] x2 |[M:4/4] x8 | x8 | x8 |[M:3/4] x6 |[M:1/4] x2 | %11
[M:4/4] x8 | x8 | x8 |[M:3/4] x6 |[M:1/4] [C,G,]2 |[M:4/4] x8 | x8 | x8 |[M:3/4][K:bass] x6 |] %20

